X:1
T:Sarabanda en mi menor
T:Haendel
T:Sarabanda en mi menor
T:Haendel
T:Sarabanda en mi menor
Z:Sarabanda en mi menor
%%score { ( 1 2 ) | ( 3 4 ) }
L:1/8
Q:1/4=72
M:3/4
K:G
V:1 treble nm="Piano" snm="Pno."
V:2 treble 
V:3 bass 
V:4 bass 
V:1
"^Adagio" G2 z G A2 | B6- | B^G A4- | AF G4- | GG F4- | FB, ^C^D E2- | EE ^D3 D | E3 F GA | %8
 B2 ^c3 c | d3 d e2 | f6- | f^d e4- | ee d^c d2- | dd ^c2- cB- | BB ^A4 | [^DFB]6 :: B3 B c2 | %17
 d6- | dG AB c2- | cc BA B2- | BB AG A2- | AD EF G2- | GG F4 | G6 | B6- | BE A3 c | f6 | %27
 z B ^c^d ef | g4 z f | ^d^c Bd eF | GE- EF ^D2 | [G,B,E]6 :| x6 | x6 | %34
V:2
 z B, E3 ^D- | D^D E^C =DB, | ^C3 B, =C[I:staff +1]A, | x6 | x6 | x6 | x6 | x6 | %8
 B,3 B,[I:staff -1] E2 | z F B3 ^A- | A^A B^G =AF | ^G3 F =GE | F4- FF | E3 E D2 | ^C3 E FC | x6 :: %16
 z D G3 F- | FF GE =FD | E4- EE | D4- DD | C4- CC | B,4- B,B, | A,3 C DA, | B,E DC B,A, | %24
 z =F ED CB, | x6 | z c BA GF | G6 | z e ^ce ^A2 | x6 | C2 B,3 A, | x6 :| x6 | x6 | %34
V:3
 E,4 F,2 | G,4 ^G,2 | A,4 F,2 | B,3 A, B,G, | A,3 C B,A, | G,4- G,G, | F,3 C B,A, | G,A, G,F, E,2 | %8
 G,2 x2 ^A,2 | B,4 ^C2 | D4 ^D2 | E4 ^C2 | ^A,4 B,2 | ^G,2 ^A,2 B,2 | E,2 F,2 F,,2 | %15
 B,,C B,A, G,F, :: G,4 A,2 | B,4 B,2 | C3 B, A,G, | F,4 G,2 | E,2 F,2 D,2 | G,3 D, E,B,, | %22
 C,A,, D,2 D,,2 | G,,6 | ^G,6 | C6 | z2 F,2 B,2 | x6 | z2 ^A,4 | A,4 G,2 | A,,2 B,,4 | [E,,E,]6 :| %32
 x6 | x6 | %34
V:4
 x6 | x6 | x6 | ^D,2 E,4 | ^C,2 ^D,4 | E,3 B,, C,G,, | A,,2 B,,4 | E,4 x2 | E,D, ^C,4 | z2 B,,4 | %10
 z2 D,2 z2 | x6 | x6 | x6 | x6 | x6 :: x6 | x6 | x6 | x6 | x6 | x6 | x6 | x6 | x6 | A,3 G, F,E, | %26
 ^D,6 | E,3 ^D, ^C,B,, | ^A,,6 | B,,4 =C,2 | x6 | x6 :| x6 | x6 | %34

